X:25
T:Squeeze me Softly. MBe.25
S:Matthew Betham MS, Towcett Cumbria, 1815
O:England;Cumbria;Towcett
Z:VMP – Hugh Taylor, 2012
T:Haul Away the Hawser,aka. MBe.25
T:Seymore’s Reel,aka. MBe.25
T:Ladies Wattle,aka. MBe.25
T:Tadie’s Wattle,aka. MBe.25
T:Comely Jane Downing,aka. MBe.25
M:C
L:1/8
Q:1/2=100
R:.Reel
C:in margin-‘M.Betham Towsett’
N:NB-No time signature written. Common time assumed
N:NB1-The E and the 2 G notes are written as a triplet. I have changed them to a crotchet and 2 quavers.
N:NB2-The final G is written as a quaver. I have changed it to a crotchet.
K:G
G2 BG Bd e2|c2 ec “^NB1″egg2|G2 BG Bd d2|ecBA A2 G2:|
|:g2 bg aedg|egfa gage|g2 bg afdf|egfa g2 g2|
gbge fafd|egfe dBAG|cBcd efge|dgBG A2 “^NB2″G2:|

